icons/redhat-logo.svg

<?xml version="1.0" encoding="UTF-8"?>
<svg width="512px" height="121px" viewBox="0 0 512 121" version="1.1" xmlns="http://www.w3.org/2000/svg" xmlns:xlink="http://www.w3.org/1999/xlink" preserveAspectRatio="xMidYMid">
		<g>
				<g>
						<path d="M106.250239,69.4471711 C116.718778,69.4471711 131.865107,67.2881917 131.865107,54.8364034 C131.896405,53.875405 131.809279,52.9142084 131.605695,51.9745005 L125.371432,24.8952083 C123.932113,18.9370946 122.668524,16.2341863 112.208352,11.0041005 C104.091259,6.85350441 86.4093853,0 81.1792995,0 C76.3090436,0 74.8948284,6.27610294 69.0873412,6.27610294 C63.4974255,6.27610294 59.3468294,1.58994608 54.1167436,1.58994608 C49.0958613,1.58994608 45.8239196,5.01251422 43.2967422,12.0501176 C43.2967422,12.0501176 36.2591387,31.8993392 35.3553799,34.7779784 C35.2117353,35.3065921 35.1496535,35.8540412 35.1712809,36.4013971 C35.1712809,44.1168196 65.5476191,69.4136985 106.250239,69.4136985 M133.471789,59.8907583 C134.919477,66.7442627 134.919477,67.4639225 134.919477,68.3676814 C134.919477,80.0830735 121.748029,86.5851162 104.434353,86.5851162 C65.3049431,86.6102206 31.0290529,63.6815245 31.0290529,48.5268279 C31.026791,46.4173605 31.4568329,44.3298059 32.2926417,42.3929833 C18.2174348,43.0959069 0,45.606348 0,61.6899078 C0,88.0328039 62.4179358,120.501176 111.840154,120.501176 C149.73108,120.501176 159.287493,103.363231 159.287493,89.8319534 C159.287493,79.1876828 150.082542,67.1040926 133.488525,59.8907583" fill="#EE0000"></path>
						<path d="M133.471789,59.8907583 C134.919477,66.7442627 134.919477,67.4639225 134.919477,68.3676814 C134.919477,80.0830735 121.748029,86.5851368 104.434353,86.5851368 C65.3049431,86.6102206 31.0290441,63.6815245 31.0290441,48.5268279 C31.026791,46.4173605 31.4568329,44.3298059 32.2926417,42.3929833 L35.3553799,34.811451 C35.2150906,35.329291 35.1530379,35.8652007 35.1712809,36.4013971 C35.1712809,44.1168196 65.5476191,69.4136985 106.250239,69.4136985 C116.718778,69.4136985 131.865107,67.2547191 131.865107,54.8029309 C131.896405,53.8419325 131.809279,52.8807358 131.605695,51.9410279 L133.471789,59.8907583 Z" fill="#000000"></path>
				</g>
				<path d="M484.715982,77.2379069 C484.715982,87.1876221 490.6992,92.0244054 501.611251,92.0244054 C504.970916,91.9407635 508.30965,91.4690164 511.560967,90.6185583 L511.560967,79.0788971 C509.482877,79.7374596 507.314128,80.0650311 505.134237,80.049601 C500.640548,80.049601 498.975288,78.6437539 498.975288,74.4178446 L498.975288,56.7359706 L511.99611,56.7359706 L511.99611,44.8532157 L498.975288,44.8532157 L498.975288,29.7905686 L484.749455,32.8700431 L484.749455,44.8532157 L475.301828,44.8532157 L475.301828,56.7359706 L484.715982,56.7359706 L484.715982,77.2379069 Z M440.364855,77.5056873 C440.364855,74.4262127 443.452698,72.9283162 448.11375,72.9283162 C450.962769,72.9448768 453.799801,73.2988036 456.565569,73.9827015 L456.565569,79.9659196 C453.839973,81.4546336 450.77556,82.2128093 447.670239,82.1667397 C443.101236,82.1667397 440.364855,80.4094309 440.364855,77.5056873 M444.716286,92.2001363 C449.737169,92.2001363 453.787347,91.145751 457.569745,88.5934691 L457.569745,91.4135314 L471.644952,91.4135314 L471.644952,61.5727539 C471.644952,50.2255598 463.996475,43.9996657 451.235065,43.9996657 C444.105412,43.9996657 437.059441,45.6732931 429.477908,49.1042294 L434.582472,59.5811373 C440.038498,57.2882676 444.624237,55.8824206 448.666047,55.8824206 C454.523743,55.8824206 457.553009,58.1669221 457.553009,62.8363426 L457.553009,65.1208441 C454.104261,64.2281101 450.554808,63.7837254 446.99242,63.7986784 C435.017615,63.7986784 427.804281,68.8195608 427.804281,77.7985721 C427.804281,85.9826103 434.314692,92.2252407 444.69955,92.2252407 M367.344489,91.4386358 L382.48245,91.4386358 L382.48245,67.2965598 L407.829537,67.2965598 L407.829537,91.4135314 L423.009338,91.4135314 L423.009338,29.8073049 L407.888114,29.8073049 L407.888114,53.4807652 L382.541026,53.4807652 L382.541026,29.8073049 L367.403066,29.8073049 L367.344489,91.4386358 Z M309.721496,68.0915328 C309.721496,61.397023 315.001791,56.2924593 321.955713,56.2924593 C325.573566,56.2191092 329.08659,57.509608 331.796642,59.9074946 L331.796642,76.1835216 C329.144693,78.6891855 325.602288,80.0326488 321.955713,79.9157108 C315.09384,79.9157108 309.721496,74.8111471 309.721496,68.1250054 M331.989109,91.4470039 L346.072684,91.4470039 L346.072684,26.7278304 L331.846851,29.8073049 L331.846851,47.3218162 C328.22544,45.2687671 324.12683,44.2065922 319.964096,44.2423417 C306.416082,44.2423417 295.763443,54.7108814 295.763443,68.0915328 C295.68477,74.4336614 298.157924,80.5413852 302.627067,85.0420011 C307.09621,89.542617 313.186428,92.0585709 319.528953,92.0247489 C324.018249,92.0458164 328.396484,90.6294147 332.022582,87.9825951 L331.989109,91.4470039 Z M267.361985,55.6481127 C271.847307,55.6481127 275.629705,58.5518564 277.127601,63.0371779 L257.713523,63.0371779 C259.11937,58.409598 262.642356,55.6481127 267.361985,55.6481127 M243.370536,68.2003186 C243.370536,81.756701 254.458318,92.3172902 268.709255,92.3172902 C276.541832,92.3172902 282.265638,90.2001515 288.165175,85.2713186 L278.742652,76.9031814 C276.541832,79.196051 273.286626,80.4261672 269.420547,80.4261672 C264.444127,80.5663303 259.894511,77.6296995 257.972935,73.037102 L291.1526,73.037102 L291.1526,69.4973799 C291.1526,54.7108814 281.211252,44.0666108 267.65487,44.0666108 C261.217045,43.9694723 255.012168,46.4730827 250.444481,51.0108429 C245.876795,55.5486031 243.332453,61.7368897 243.387272,68.1752142 M218.826789,42.7444451 C223.847672,42.7444451 226.659366,45.907601 226.659366,49.6983672 C226.659366,53.4891333 223.847672,56.6522892 218.826789,56.6522892 L203.856192,56.6522892 L203.856192,42.7444451 L218.826789,42.7444451 Z M188.701495,91.4135314 L203.839455,91.4135314 L203.839455,68.9701873 L215.36238,68.9701873 L226.985723,91.4135314 L243.931201,91.4135314 L230.374819,66.7693672 C237.423069,63.9028714 242.020816,57.0393757 241.989793,49.4305868 C241.989793,38.3428049 233.278562,29.8073049 220.232636,29.8073049 L188.701495,29.8073049 L188.701495,91.4135314 Z" fill="#000000"></path>
		</g>
</svg>

<svg xmlns="http://www.w3.org/2000/svg" viewBox="0 0 511.996 120.501">
  <path fill="#e00" d="M106.25 69.447c10.469 0 25.615-2.159 25.615-14.61a11.714 11.714 0 0 0-.26-2.863l-6.234-27.079c-1.439-5.958-2.702-8.66-13.163-13.89C104.091 6.853 86.41 0 81.18 0c-4.87 0-6.284 6.276-12.092 6.276-5.59 0-9.74-4.686-14.97-4.686-5.021 0-8.293 3.423-10.82 10.46 0 0-7.038 19.85-7.942 22.728a5.38 5.38 0 0 0-.184 1.623c0 7.716 30.377 33.013 71.08 33.013m27.22-9.523c1.448 6.853 1.448 7.573 1.448 8.477 0 11.715-13.171 18.217-30.485 18.217-39.13.025-73.405-22.903-73.405-38.058a15.439 15.439 0 0 1 1.264-6.134C18.217 43.096 0 45.606 0 61.69 0 88.033 62.418 120.5 111.84 120.5c37.891 0 47.447-17.138 47.447-30.669 0-10.644-9.204-22.728-25.798-29.941"/>
  <path d="M133.472 59.89c1.447 6.854 1.447 7.574 1.447 8.478 0 11.715-13.171 18.217-30.485 18.217-39.13.025-73.405-22.903-73.405-38.058a15.439 15.439 0 0 1 1.264-6.134l3.062-7.582a5.38 5.38 0 0 0-.184 1.59c0 7.716 30.377 33.013 71.08 33.013 10.468 0 25.614-2.16 25.614-14.611a11.714 11.714 0 0 0-.26-2.862zM484.716 77.238c0 9.95 5.983 14.786 16.895 14.786a43.606 43.606 0 0 0 9.95-1.405v-11.54a20.786 20.786 0 0 1-6.427.97c-4.493 0-6.159-1.405-6.159-5.631V56.736h13.021V44.853h-13.02V29.791l-14.227 3.079v11.983h-9.447v11.883h9.414zm-44.351.268c0-3.08 3.088-4.578 7.749-4.578 2.849.017 5.686.37 8.452 1.055v5.983a18 18 0 0 1-8.896 2.2c-4.569 0-7.305-1.757-7.305-4.66m4.351 14.694c5.021 0 9.071-1.054 12.854-3.607v2.82h14.075v-29.84c0-11.347-7.649-17.573-20.41-17.573-7.13 0-14.176 1.673-21.757 5.104l5.104 10.477c5.457-2.293 10.042-3.699 14.084-3.699 5.858 0 8.887 2.285 8.887 6.954v2.285a41.447 41.447 0 0 0-10.56-1.322c-11.975 0-19.189 5.02-19.189 14 0 8.184 6.51 14.426 16.896 14.426m-77.356-.786h15.138V67.297h25.348v24.117h15.18V29.807h-15.122v23.674h-25.347V29.807h-15.138zm-57.623-23.347c0-6.695 5.28-11.8 12.235-11.8a14.41 14.41 0 0 1 9.84 3.615v16.277a13.69 13.69 0 0 1-9.84 3.732c-6.862 0-12.235-5.105-12.235-11.791m22.268 23.322h14.084v-64.72l-14.226 3.08v17.515a23.682 23.682 0 0 0-11.883-3.08c-13.548 0-24.2 10.469-24.2 23.85a23.64 23.64 0 0 0 23.765 23.933 21.023 21.023 0 0 0 12.494-4.042zm-64.627-35.799c4.485 0 8.268 2.904 9.766 7.39h-19.414c1.405-4.628 4.928-7.39 9.648-7.39M243.371 68.2c0 13.557 11.087 24.117 25.338 24.117 7.833 0 13.557-2.117 19.456-7.046l-9.422-8.368c-2.201 2.293-5.456 3.523-9.322 3.523a12.042 12.042 0 0 1-11.448-7.389h33.18v-3.54c0-14.786-9.942-25.43-23.498-25.43a23.908 23.908 0 0 0-24.268 24.108m-24.56-25.43c5.02 0 7.832 3.163 7.832 6.953 0 3.791-2.811 6.954-7.832 6.954h-14.97V42.744zM188.7 91.413h15.138V68.97h11.523l11.624 22.444h16.945l-13.556-24.645a18.636 18.636 0 0 0 11.615-17.338c0-11.088-8.711-19.624-21.757-19.624H188.7z"/>
</svg>
